X: 869
T: A ha'porth of tea
C: anon.
O: Ireland
B: Francis O'Neill: "The Dance Music of Ireland" (1907) no. 785
R: Reel
Z: Transcribed by Frank Nordberg - http://www.musicaviva.com
F: http://www.musicaviva.com/abc/tunes/ireland/oneill-1001/oneill-1001-078
5.abc
m: ~n2 = o/4n/m/4n
M: C|
L: 1/8
K: D
(d/c/)|BA (3(Bcd) A2(FA)|dBcA BF-~F2|BA (3(Bcd) A2(Af)|afeg (fd)d:|e|fddA
 dfag|fddA (3(Bcd) eg|
fddA defg|afeg (fd)de|(fd)dA dfag|(fd)dA (3(Bcd) eg|f2(fd) g2(fg)|afeg (f
d)d|]
W:
W:
W: From Musica Viva - http://www.musicaviva.com
W: the Internet center for free sheet music downloads.


